X: 17740
T: Homeward Bound
R: reel
M: 4/4
K: Dmajor
A,2|:D2 DE FEDF|A2 AF ABde|faed B2 dB|AFEF DB,A,B,|
D2 DE FEDF|A2 AF ABde|faed B2 dB|AFEF D3 g:|
fdfg afdf|e/e/e ed efg2|fdfg afdf|edef d/d/d dg|
fdfg afdf|e/e/e ed efg2|f/g/a ed B2 dB|AFEF D4:|

